front/src/img/Rule3.svg

<svg width="68" height="67" viewBox="0 0 68 67" fill="none" xmlns="http://www.w3.org/2000/svg">
<path d="M36.1558 50.3733H32.2587V43.7111H19.9473L27.963 32.0962H23.9773L34.2073 17.72L44.4373 32.0962H40.4958L48.4673 43.7111H36.1558V50.3733ZM23.8001 41.7388H31.8601H28.0073H40.4073H36.5987H44.6587H23.8001ZM23.8001 41.7388H44.6587L36.5987 30.1239H40.4073L34.2073 21.4017L28.0073 30.1239H31.8601L23.8001 41.7388Z" fill="#FBD566"/>
<circle cx="34.0003" cy="33.84" r="31.8267" stroke="#FBD566" stroke-width="2.48"/>
</svg>

<svg xmlns="http://www.w3.org/2000/svg" width="68" height="67" fill="none"><path fill="#FBD566" d="M36.156 50.373h-3.897v-6.662H19.947l8.016-11.615h-3.986l10.23-14.376 10.23 14.376h-3.941l7.971 11.615H36.156v6.662ZM23.8 41.74h8.06-3.853 12.4H36.6h8.06H23.8Zm0 0H44.66l-8.06-11.615h3.808l-6.2-8.722-6.2 8.722h3.853L23.8 41.739Z"/><circle cx="34" cy="33.84" r="31.827" stroke="#FBD566" stroke-width="2.48"/></svg>
